images/insane-posse.svg

<?xml version="1.0" standalone="no"?><!DOCTYPE svg PUBLIC "-//W3C//DTD SVG 1.1//EN" "http://www.w3.org/Graphics/SVG/1.1/DTD/svg11.dtd"><svg width="100%" height="100%" viewBox="0 0 100 120" version="1.1" xmlns="http://www.w3.org/2000/svg" xmlns:xlink="http://www.w3.org/1999/xlink" xml:space="preserve" style="fill-rule:evenodd;clip-rule:evenodd;stroke-linecap:round;stroke-linejoin:round;stroke-miterlimit:1.41421;"><ellipse cx="50" cy="60" rx="35.245" ry="41.745" style="fill:#fff;stroke-width:1px;stroke:#000;"/><ellipse cx="35.811" cy="55.33" rx="6.548" ry="2.67" style="fill:none;stroke-width:1px;stroke:#000;"/><ellipse cx="62.803" cy="55.33" rx="6.548" ry="2.67" style="fill:none;stroke-width:1px;stroke:#000;"/><ellipse cx="62.803" cy="57.543" rx="3.274" ry="2.213" style="fill:#000;stroke-width:1px;stroke:#000;"/><ellipse cx="35.811" cy="57.543" rx="3.274" ry="2.213" style="fill:#000;stroke-width:1px;stroke:#000;"/><path d="M44.726,46.104c0,-8.303 -3.994,-15.044 -8.915,-15.044c-4.92,0 -8.915,6.741 -8.915,15.044c0.743,-6.227 4.482,-11.283 8.915,-11.283c4.433,0 8.172,5.056 8.915,11.283Z" style="fill:#000;stroke-width:1px;stroke:#000;"/><path d="M71.719,46.104c0,-8.303 -3.995,-15.044 -8.916,-15.044c-4.92,0 -8.915,6.741 -8.915,15.044c0.743,-6.227 4.482,-11.283 8.915,-11.283c4.434,0 8.173,5.056 8.916,11.283Z" style="fill:#000;stroke-width:1px;stroke:#000;"/><rect x="33.612" y="39.242" width="4.399" height="6.529" style="fill:#000;"/><rect x="60.604" y="39.567" width="4.399" height="6.529" style="fill:#000;"/><path d="M32.168,63.788l5.842,-0.318l-2.905,8.649l-5.842,-0.11l2.905,-8.221Z" style="fill:#000;stroke-width:1px;stroke:#000;"/><path d="M66.447,63.788l-5.843,-0.318l2.905,8.649l5.843,-0.11l-2.905,-8.221Z" style="fill:#000;stroke-width:1px;stroke:#000;"/><path d="M19.994,73.518l4.79,0l7.674,9.291l8.748,5.93l1.93,-6.191l11.965,-0.429l2.746,4.634l10.351,-5.172l5.172,-8.063l4.6,0l-7.651,12.161l-11.154,6.941l-4.064,4.785l-5.255,2.075l-6.52,-2.756l-2.12,-2.765l-8.748,-4.831l-12.464,-15.61Z" style="fill:#000;stroke-width:1px;stroke:#000;"/><ellipse cx="48.982" cy="68.494" rx="5.781" ry="5.024" style="fill:#000;"/><path d="M54.437,92.387c0.45,-0.256 0.686,-0.546 0.686,-0.841c0,-0.928 -2.295,-1.682 -5.123,-1.682c-2.828,0 -5.123,0.754 -5.123,1.682c0,0.295 0.236,0.585 0.686,0.841l8.874,0Z" style="fill:#fff;"/><path d="M16.621,48.554c0,0 6.616,-12.927 9.23,-18.034c0.682,-1.333 1.732,-2.442 3.025,-3.197c2.805,-1.636 7.882,-4.598 10.487,-6.118c1.083,-0.631 2.277,-1.048 3.518,-1.228c3.542,-0.514 10.856,-1.574 10.856,-1.574c0,0 0,0 0.001,0c0.67,-0.097 1.354,-0.004 1.975,0.268c2.408,1.055 8.783,3.848 11.889,5.209c1.156,0.507 2.205,1.228 3.092,2.126c1.7,1.721 4.597,4.653 6.174,6.249c0.727,0.737 1.297,1.614 1.674,2.577c1.309,3.345 4.412,11.272 4.412,11.272l12.923,-11.591l-13.859,-7.074l7.981,-13.591l-16.316,4.407l4.287,-7.924l-8.618,4.636l0,-10.438l-4.374,6.261l-4.374,-8.545l-2.615,7.78l-3.225,-6.832l-4.764,8.364l-6.799,-6.557l0,6.548l-9.204,-8.288l1.814,11.193l-13.513,-9.93l2.955,13.732l-15.572,-7.58l12.896,15.036l-17.423,-7.456l13.218,12.805l-12.742,0l10.991,17.494Z" style="fill:#cda03f;stroke-width:1px;stroke:#000;"/></svg>

<?xml version="1.0" standalone="no"?>
<!DOCTYPE svg PUBLIC "-//W3C//DTD SVG 1.1//EN" "http://www.w3.org/Graphics/SVG/1.1/DTD/svg11.dtd">
<svg width="100%" height="100%" viewBox="0 0 100 120" version="1.1" xmlns="http://www.w3.org/2000/svg" xmlns:xlink="http://www.w3.org/1999/xlink" xml:space="preserve" style="fill-rule:evenodd;clip-rule:evenodd;stroke-linecap:round;stroke-linejoin:round;stroke-miterlimit:1.41421;">
    <g transform="matrix(1.496,0,0,1.2226,-44.0601,-12.3605)">
        <ellipse cx="62.874" cy="59.186" rx="23.559" ry="34.145" style="fill:white;stroke-width:0.73px;stroke:black;"/>
    </g>
    <g transform="matrix(1,0,0,0.684714,2.52438,4.93349)">
        <ellipse cx="33.287" cy="73.602" rx="6.548" ry="3.9" style="fill:none;stroke-width:1.17px;stroke:black;"/>
    </g>
    <g transform="matrix(1,0,0,0.684714,29.5166,4.93349)">
        <ellipse cx="33.287" cy="73.602" rx="6.548" ry="3.9" style="fill:none;stroke-width:1.17px;stroke:black;"/>
    </g>
    <g transform="matrix(1,0,0,0.708981,26.2424,3.14739)">
        <ellipse cx="36.561" cy="76.723" rx="3.274" ry="3.121" style="fill:black;stroke-width:1.15px;stroke:black;"/>
    </g>
    <g transform="matrix(1,0,0,0.708981,-0.749821,3.14739)">
        <ellipse cx="36.561" cy="76.723" rx="3.274" ry="3.121" style="fill:black;stroke-width:1.15px;stroke:black;"/>
    </g>
    <g transform="matrix(-5.18525e-16,2.82272,-1,-1.83697e-16,114.429,-38.7331)">
        <path d="M30.055,69.702C27.114,69.702 24.725,73.697 24.725,78.618C24.725,83.538 27.114,87.533 30.055,87.533C27.849,86.79 26.058,83.051 26.058,78.618C26.058,74.184 27.849,70.445 30.055,69.702Z" style="fill:black;stroke-width:0.47px;stroke:black;"/>
    </g>
    <g transform="matrix(-5.18525e-16,2.82272,-1,-1.83697e-16,141.421,-38.7331)">
        <path d="M30.055,69.702C27.114,69.702 24.725,73.697 24.725,78.618C24.725,83.538 27.114,87.533 30.055,87.533C27.849,86.79 26.058,83.051 26.058,78.618C26.058,74.184 27.849,70.445 30.055,69.702Z" style="fill:black;stroke-width:0.47px;stroke:black;"/>
    </g>
    <g transform="matrix(1,0,0,1,1.15425,-4.99025)">
        <rect x="32.458" y="44.232" width="4.399" height="6.529" style="fill:black;"/>
    </g>
    <g transform="matrix(1,0,0,1,28.1465,-4.66542)">
        <rect x="32.458" y="44.232" width="4.399" height="6.529" style="fill:black;"/>
    </g>
    <g transform="matrix(0.667923,0,0,0.722797,10.3854,14.6279)">
        <path d="M32.612,68.013L41.359,67.573L37.01,79.54L28.263,79.387L32.612,68.013Z" style="fill:black;stroke-width:1.44px;stroke:black;"/>
    </g>
    <g transform="matrix(-0.667923,0,0,0.722797,88.229,14.6279)">
        <path d="M32.612,68.013L41.359,67.573L37.01,79.54L28.263,79.387L32.612,68.013Z" style="fill:black;stroke-width:1.44px;stroke:black;"/>
    </g>
    <g transform="matrix(1,0,0,0.935853,-0.153956,3.64499)">
        <path d="M20.148,74.663L24.938,74.663L32.612,84.59L41.359,90.927L43.29,84.311L55.255,83.853L58.001,88.804L68.352,83.278L73.524,74.663L78.124,74.663L70.473,87.657L59.319,95.074L55.255,100.187L50,102.404L43.48,99.459L41.359,96.505L32.612,91.343L20.148,74.663Z" style="fill:black;stroke-width:1.03px;stroke:black;"/>
    </g>
    <g transform="matrix(0.81286,0,0,0.671786,7.57674,20.1394)">
        <ellipse cx="50.938" cy="71.979" rx="7.113" ry="7.479" style="fill:black;"/>
    </g>
    <g transform="matrix(1,0,0,1,-0.131475,0)">
        <path d="M54.569,92.387C55.018,92.131 55.255,91.841 55.255,91.546C55.255,90.618 52.959,89.864 50.131,89.864C47.304,89.864 45.008,90.618 45.008,91.546C45.008,91.841 45.245,92.131 45.694,92.387L54.569,92.387Z" style="fill:white;"/>
    </g>
    <path d="M16.621,48.554C16.621,48.554 23.237,35.627 25.851,30.52C26.533,29.187 27.583,28.078 28.876,27.323C31.681,25.687 36.758,22.725 39.363,21.205C40.446,20.574 41.64,20.157 42.881,19.977C46.423,19.463 53.737,18.403 53.737,18.403C53.737,18.403 53.737,18.403 53.738,18.403C54.408,18.306 55.092,18.399 55.713,18.671C58.121,19.726 64.496,22.519 67.602,23.88C68.758,24.387 69.807,25.108 70.694,26.006C72.394,27.727 75.291,30.659 76.868,32.255C77.595,32.992 78.165,33.869 78.542,34.832C79.851,38.177 82.954,46.104 82.954,46.104L95.877,34.513L82.018,27.439L89.999,13.848L73.683,18.255L77.97,10.331L69.352,14.967L69.352,4.529L64.978,10.79L60.604,2.245L57.989,10.025L54.764,3.193L50,11.557L43.201,5L43.201,11.548L33.997,3.26L35.811,14.453L22.298,4.523L25.253,18.255L9.681,10.675L22.577,25.711L5.154,18.255L18.372,31.06L5.63,31.06L16.621,48.554Z" style="fill:rgb(205,160,63);stroke-width:1px;stroke:black;"/>
</svg>
